X:1
T:Les Filles de St. Nicolas
C:traditionell
A:France
Z:abc transcription Simon Wascher
M:2/4
L:1/8
K:G
B2 G2 | B3/2A/2 Bc | AA GA |\
B2 G2 | B3/2A/2 Bc | A3D :|
|:\
d2 A2 | d3/2c/2 BA | GG/2^F/2 GA |\
B2 AB/2c/2 | d3/2c/2 BA | G4 :|
